src/topics/icons/airbrake.svg

<svg height="255" preserveAspectRatio="xMidYMid" viewBox="0 0 256 255" width="256" xmlns="http://www.w3.org/2000/svg"><path d="m128.636514 155.746615v-155.23361889h-3.522242v.06873152l-124.60824865 64.03287157v60.8642488h.00597665v3.234366h-.00597665v60.868233l124.60824865 64.747082h3.842989v-98.581914z" fill="#ff8e4a"/><path d="m129.941416 254.328529 125.568498-64.747082v-124.9668478l-125.887253-64.10160309h-2.243237v253.81055289h2.243237" fill="#f48746"/><path d="m109.097837 87.2551595h36.19561v59.2077195h-36.19561z" fill="#ff8e4a"/><path d="m66.1735097 188.397074h14.8639378c9.4102412 0 12.6087471-2.238257 15.6189883-9.988981l8.2796572-21.353587h45.159596l8.280653 21.353587c3.011238 7.750724 6.396016 9.988981 15.805261 9.988981h14.677665v-19.114335h-3.011237c-3.19751 0-4.704622-.689307-5.831222-3.790194l-39.516638-99.3658524h-25.779299l-39.703907 99.3658524c-1.1285915 3.100887-2.632716 3.790194-5.833214 3.790194h-3.0102413zm44.4075333-49.939922 11.478163-30.655253c2.445448-6.714771 5.269417-18.2556889 5.269417-18.2556889h.375533s2.822972 11.5409179 5.269416 18.2556889l11.478163 30.655253z" fill="#fff"/><path d="m231.204856 150.082739v-51.8086223c.235082 4.5233303 2.970397 16.8432063 24.305058 27.8512063v11.653479zm0-53.1623343v1.353712c-.029883-.5926848-.01793-1.0479066 0-1.353712zm.041837-.4392841s-.022911.1534008-.041837.4392841v-.4392841z" fill="#d4763c"/><path d="m231.155051 94.3016342c-.013946.9931207.05877 1.8945993.049805 2.0460078-.01793.2480312-2.220327 16.094132 24.305058 29.777681v-60.863253c-23.325883 12.0349884-24.449494 25.7414475-24.354863 29.0395642" fill="#ff8e4a"/></svg>

<?xml version="1.0" encoding="UTF-8" standalone="no"?>
<svg width="256px" height="255px" viewBox="0 0 256 255" version="1.1" xmlns="http://www.w3.org/2000/svg" xmlns:xlink="http://www.w3.org/1999/xlink" preserveAspectRatio="xMidYMid">
	<g>
		<path d="M128.636514,155.746615 L128.636514,0.512996109 L125.114272,0.512996109 L125.114272,0.581727626 L0.506023346,64.6145992 L0.506023346,125.478848 L0.512,125.478848 L0.512,128.713214 L0.506023346,128.713214 L0.506023346,189.581447 L125.114272,254.328529 L128.957261,254.328529 L128.957261,155.746615 L128.636514,155.746615" fill="#FF8E4A"></path>
		<path d="M129.941416,254.328529 L255.509914,189.581447 L255.509914,64.6145992 L129.622661,0.512996109 L127.379424,0.512996109 L127.379424,254.323549 L129.622661,254.323549" fill="#F48746"></path>
		<path d="M109.097837,87.2551595 L145.293447,87.2551595 L145.293447,146.462879 L109.097837,146.462879 L109.097837,87.2551595 L109.097837,87.2551595 Z" fill="#FF8E4A"></path>
		<path d="M66.1735097,188.397074 L81.0374475,188.397074 C90.4476887,188.397074 93.6461946,186.158817 96.6564358,178.408093 L104.936093,157.054506 L150.095689,157.054506 L158.376342,178.408093 C161.38758,186.158817 164.772358,188.397074 174.181603,188.397074 L188.859268,188.397074 L188.859268,169.282739 L185.848031,169.282739 C182.650521,169.282739 181.143409,168.593432 180.016809,165.492545 L140.500171,66.1266926 L114.720872,66.1266926 L75.016965,165.492545 C73.8883735,168.593432 72.384249,169.282739 69.183751,169.282739 L66.1735097,169.282739 L66.1735097,188.397074 L66.1735097,188.397074 Z M110.581043,138.457152 L122.059206,107.801899 C124.504654,101.087128 127.328623,89.5462101 127.328623,89.5462101 L127.704156,89.5462101 C127.704156,89.5462101 130.527128,101.087128 132.973572,107.801899 L144.451735,138.457152 L110.581043,138.457152 L110.581043,138.457152 Z" fill="#FFFFFF"></path>
		<path d="M231.204856,150.082739 L231.204856,98.2741167 C231.439938,102.797447 234.175253,115.117323 255.509914,126.125323 L255.509914,137.778802 L231.204856,150.082739 L231.204856,150.082739 Z M231.204856,96.9204047 L231.204856,98.2741167 C231.174973,97.6814319 231.186926,97.2262101 231.204856,96.9204047 L231.204856,96.9204047 L231.204856,96.9204047 Z M231.246693,96.4811206 C231.246693,96.4811206 231.223782,96.6345214 231.204856,96.9204047 L231.204856,96.4811206 L231.246693,96.4811206 L231.246693,96.4811206 Z" fill="#D4763C"></path>
		<path d="M231.155051,94.3016342 C231.141105,95.2947549 231.213821,96.1962335 231.204856,96.347642 C231.186926,96.5956732 228.984529,112.441774 255.509914,126.125323 L255.509914,65.26207 C232.184031,77.2970584 231.06042,91.0035175 231.155051,94.3016342" fill="#FF8E4A"></path>
	</g>
</svg>
